X:1
T:Title
%%score { 1 | 2 }
L:1/8
Q:1/4=104
M:4/4
K:D
V:1 treble nm="Grand Piano"
V:2 bass 
V:1
 D3 E FEDB | [FA]4 [DF]4 | [CE]3 [CF] [CG][CF][CE][Ec] | B4 A4 | A3 B [Gc][GB][GA][Gd] | %5
w: ????~??????? * * * * *|||||
 [Fd]4 [FA]4 | G3 F EG[CF][CE] | [A,D]8 | [Fd]3 [EFc] [Ge][Bd][Ac][GB] | [FA]2 FG A2 A2 | %10
w: |||||
 [Ec]3 [GB] [Gd][Gc][GB][GA] | [CG]2 [CE][CF] [CG]2 [CG]2 | A3 F BA[EG][DF] | %13
w: |||
 [CE]3 [CF] [CA][CG][CF][CE] | D3 E GFED |[M:8/4] C2 [CF][CE] [A,D]4 z8 | %16
w: |||
[M:9/8] [FA]3 B [Gc]2 [Fd]3 |[M:4/4] [A,F]4 [CE]4 | [F,D]8 |] %19
w: |||
V:2
 [D,F,A,]3 [D,G,A,] [D,A,D][D,G,C][D,F,A,][D,G,D] | [D,D]4 [D,A,]4 | %2
 [A,,G,]3 [A,,F,] [A,,E,][A,,E,][A,,G,][A,,G,] | [A,DG]4 [A,CG]4 | %4
 [A,DF]3 [A,DF][K:bass] [A,,A,][A,,A,][A,,A,][A,,B,] | [E,A,]4 [D,D]4 | %6
 [E,B,D]3 [E,B,D] [G,A,C][E,B,C][A,,A,][A,,G,] | [D,F,]8 | [D,A,]3 [D,A,] [G,B,]G,[D,B,][D,C] | %9
 [D,D]2 [D,A,D][E,G,C] [D,F,D]2 [D,F,D]2 | [A,,A,]3 [A,,A,] [E,A,][E,A,][E,B,][E,C] | %11
 [A,,A,]2 [A,,G,][A,,F,] [A,,E,]2 [A,,E,]2 | [D,F,D]3 [D,A,D] [D,G,D][D,F,D][D,A,][D,A,] | %13
 [A,,G,]3 [A,,G,] [A,,E,][A,,E,][A,,A,][A,,G,] | [D,F,A,]3 [D,G,A,] [D,B,D][D,A,D][D,G,C][D,F,] | %15
[M:8/4] [E,G,A,]2 [A,,A,][A,,G,] [D,F,]4 z8 |[M:9/8] [D,D]3 [D,A,] [A,,A,]2 [B,,B,]3 | %17
[M:4/4] [A,,D,]4 [A,,G,]4 | [D,,D,]8 |] %19

